assets/img/icons/icon-search.svg

<svg width="25px" height="25px" viewBox="0 0 25 25" version="1.1" xmlns="http://www.w3.org/2000/svg" xmlns:xlink="http://www.w3.org/1999/xlink">
    <g id="Page-1" stroke="none" stroke-width="1" fill="inherit" fill-rule="evenodd">
        <path d="M9.31635389,15.7506702 C11.103674,15.7506702 12.6228718,15.1251174 13.8739946,13.8739946 C15.1251174,12.6228718 15.7506702,11.103674 15.7506702,9.31635389 C15.7506702,7.52903378 15.1251174,6.00983592 13.8739946,4.75871314 C12.6228718,3.50759035 11.103674,2.88203753 9.31635389,2.88203753 C7.52903378,2.88203753 6.00983592,3.50759035 4.75871314,4.75871314 C3.50758992,6.00983592 2.88203753,7.52903378 2.88203753,9.31635389 C2.88203753,11.103674 3.50758992,12.6228718 4.75871314,13.8739946 C6.00983592,15.1251174 7.52903378,15.7506702 9.31635389,15.7506702 L9.31635389,15.7506702 Z M17.8954424,15.7506702 L25,22.8552279 L22.8552279,25 L15.7506702,17.8954424 L15.7506702,16.7560322 L15.3485255,16.3538874 C13.6505737,17.8284268 11.639867,18.5656836 9.31635389,18.5656836 C6.72473995,18.5656836 4.52413941,17.6720386 2.71447721,15.8847185 C0.904816729,14.0973984 0,11.9079678 0,9.31635389 C0,6.72473995 0.904816729,4.52413941 2.71447721,2.71447936 C4.52413941,0.904815013 6.72473995,0 9.31635389,0 C11.9079678,0 14.0973984,0.904815013 15.8847185,2.71447936 C17.6720386,4.52413941 18.5656836,6.72473995 18.5656836,9.31635389 C18.5656836,11.639867 17.8284268,13.6505737 16.3538874,15.3485255 L16.7560322,15.7506702 L17.8954424,15.7506702 Z" id="Search"></path>
    </g>
</svg>

<svg xmlns="http://www.w3.org/2000/svg" viewBox="0 0 25 25">
  <path fill="inherit" fill-rule="evenodd" d="M9.32 15.75c1.78 0 3.3-.62 4.55-1.88 1.26-1.25 1.88-2.77 1.88-4.55 0-1.8-.62-3.3-1.88-4.56-1.25-1.25-2.77-1.88-4.55-1.88-1.8 0-3.3.63-4.56 1.88C3.5 6 2.88 7.53 2.88 9.32c0 1.78.63 3.3 1.88 4.55 1.25 1.26 2.77 1.88 4.56 1.88zm8.58 0l7.1 7.1L22.86 25l-7.1-7.1v-1.14l-.4-.4c-1.7 1.47-3.72 2.2-6.04 2.2-2.6 0-4.8-.9-6.6-2.68C.9 14.1 0 11.9 0 9.32c0-2.6.9-4.8 2.7-6.6C4.53.9 6.73 0 9.33 0c2.6 0 4.78.9 6.56 2.7 1.8 1.82 2.7 4.02 2.7 6.62 0 2.32-.75 4.33-2.23 6.03l.4.4h1.15z"/>
</svg>
